!!!COM: Mozart, Wolfgang Amadeus
!!!CDT: 1756/01/27/-1791/12/05/
!!!CNT: German
!!!OTL: Piano Sonata No. 6 in D major
!!!SCT1: K<sup>1</sup> 284
!!!SCT2: K<sup>6</sup> 205b
!!!OMV: Mvmt. 3k
!!!OMD: Variation 10
!!!ODT: 1775///
**kern	**kern	**dynam
*staff2	*staff1	*staff1
*>[A,A,B,B]	*>[A,A,B,B]	*>[A,A,B,B]
*>norep[A,B]	*>norep[A,B]	*>norep[A,B]
*>A	*>A	*>A
*clefF4	*clefG2	*clefG2
*k[f#c#]	*k[f#c#]	*k[f#c#]
*D:	*D:	*D:
*M2/2	*M2/2	*M2/2
*met(c|)	*met(c|)	*met(c|)
*MM120	*MM120	*MM120
=!|:	=!|:	=!|:
2r	16a\LL	p
.	16aa\	.
.	16a\	.
.	16aa\JJ	.
.	16a\LL	.
.	16aa\	.
.	16a\	.
.	16aa\JJ	.
=1	=1	=1
2F#\ 2A\	16a\LL	.
.	16aa\	.
.	16a\	.
.	16aa\JJ	.
.	16a\LL	.
.	16aa\	.
.	16a\	.
.	16aa\JJ	.
4A\ 4d\	16a\LL	.
.	16aa\	.
.	16a\	.
.	16aa\JJ	.
4d\ 4f#\	16a\LL	.
.	16aa\	.
.	16a\	.
.	16aa\JJ	.
=2	=2	=2
4.c#\ 4.e\	16a\LL	.
.	16aa\	.
.	16a\	.
.	16aa\JJ	.
.	16a\LL	.
.	16aa\	.
8d\ 8f#\	16a\	.
.	16aa\JJ	.
4e\ 4g\	16a\LL	.
.	16aa\	.
.	16a\	.
.	16aa\JJ	.
4e\ 4g\	16a\LL	.
.	16aa\	.
.	16a\	.
.	16aa\JJ	.
=3	=3	=3
2d\ 2f#\	16a\LL	.
.	16aa\	.
.	16a\	.
.	16aa\JJ	.
.	16a#\LL	.
.	16aa#\	.
.	16a#\	.
.	16aa#\JJ	.
2G\ 2g\	16b\LL	.
.	16bb\	.
.	16b\	.
.	16bb\JJ	.
.	16ee\LL	.
.	16eee\	.
.	16ee\	.
.	16eee\JJ	.
=4	=4	=4
*^	*	*
(4f#/	2A\	4dd\ (4ddd\	.
4e/)	.	4cc#\ 4ccc#\)	f
2r	16A\LL	4r	.
.	16a\	.	.
.	16A\	.	.
.	16a\JJ	.	.
.	16G\LL	4cc#\ 4ee\	.
.	16g\	.	.
.	16G\	.	.
.	16g\JJ	.	.
*v	*v	*	*
=5	=5	=5
*	*^	*
16F#\LL	8r	4a\	.
16f#\	.	.	.
16F#\	4aa/	.	.
16f#\JJ	.	.	.
16E\LL	.	4cc#\	.
16e\	.	.	.
16E\	4gg/	.	.
16e\JJ	.	.	.
16D\LL	.	4dd\	.
16d\	.	.	.
16D\	4ff#/	.	.
16d\JJ	.	.	.
16C#\LL	.	4a#\	.
16c#\	.	.	.
16C#\	[8ee/	.	.
16c#\JJ	.	.	.
=6	=6	=6	=6
16BB\LL	8ee/]	4b\	.
16B\	.	.	.
16BB\	4dd/	.	.
16B\JJ	.	.	.
16AA\LL	.	4ccn\	.
16A\	.	.	.
16AA\	4dd#/	.	.
16A\JJ	.	.	.
16GG#/LL	.	4b\	.
16G#/	.	.	.
16GG#/	4ee/	.	.
16G#/JJ	.	.	.
16EE/LL	.	4g#\	.
16E/	.	.	.
16EE/	8ddn/	.	.
16E/JJ	.	.	.
*	*v	*v	*
=7	=7	=7
4A\	16c#/LL	.
.	16cc#/	.
.	16c#/	.
.	16cc#/JJ	.
4C#/	16e/LL	.
.	16ee/	.
.	16e/	.
.	16ee/JJ	.
4E\	16G#/LL	.
.	16g#/	.
.	16G#/	.
.	16g#/JJ	.
4EE/	16B/LL	.
.	16b/	.
.	16B/	.
.	16b/JJ	.
=8	=8	=8
4AA/	4A/ 4a/	.
4AAA/	4r	.
=:|!|:	=:|!|:	=:|!|:
*>B	*>B	*>B
*clefG2	*	*
16f#/LL	4r	.
16ff#/	.	.
16f#/	.	.
16ff#/JJ	.	.
16e/LL	4ff#\ 4aa\	p
16ee/	.	.
16e/	.	.
16ee/JJ	.	.
=9	=9	=9
16d#/LL	4aa\ 4cccn\	.
16dd#/	.	.
16d#/	.	.
16dd#/JJ	.	.
16e/LL	4gg#\ 4bb\	.
16ee/	.	.
16e/	.	.
16ee/JJ	.	.
16c#/LL	4ggn\ 4bb-\	.
16cc#/	.	.
16c#/	.	.
16cc#/JJ	.	.
16dn/LL	4ff#\ 4aa\	.
16ddn/	.	.
16d/	.	.
16dd/JJ	.	.
*clefF4	*	*
=10	=10	=10
16G#\LL	16dd\LL	f
16g#\	16ddd\	.
16A\	16cc#\	.
16a\JJ	16ccc#\JJ	.
16F#\LL	16ccn\LL	.
16f#\	16cccn\	.
16Gn\	16b\	.
16gn\JJ	16bb\JJ	.
16E#\LL	16b\LL	.
16e#\	16bb\	.
16F#\	16a#\	.
16f#\JJ	16aa#\JJ	.
16D#\LL	16an\LL	.
16d#\	16aan\	.
16En\	16g#\	.
16en\JJ	16gg#\JJ	.
=11	=11	=11
*^	*	*
4c#/	4A#\	16gn\LL	p
.	.	16ggn\	.
.	.	16g\	.
.	.	16gg\JJ	.
4d/	4B\	16f#\LL	.
.	.	16ff#\	.
.	.	16f#\	.
.	.	16ff#\JJ	.
2B/	(4G\	16e/LL	.
.	.	16ee/	.
.	.	16e/	.
.	.	16ee/JJ	.
.	4G#\)	16d/LL	.
.	.	16dd/	.
.	.	16d/	.
.	.	16dd/JJ	.
*v	*v	*	*
=12	=12	=12
4An\	16c#/LL	pp
.	16cc#/	.
.	16d/	.
.	16dd/JJ	.
4r	16d#/LL	.
.	16dd#/	.
.	16e/	.
.	16ee/JJ	.
2r	16fn\LL	.
.	16ffn\	.
.	16f#\	.
.	16ff#\JJ	.
.	16g\LL	.
.	16gg\	.
.	16g#\	.
.	16gg#\JJ	.
=13	=13	=13
2r	4a\ 4aa\	f
.	4r	.
16A\LL	4r	.
16a\	.	.
16A\	.	.
16a\JJ	.	.
16Gn\LL	4cc#\ 4ee\	.
16gn\	.	.
16G\	.	.
16g\JJ	.	.
=14	=14	=14
*	*^	*
16F#\LL	8r	4a\	.
16f#\	.	.	.
16F#\	4aa/	.	.
16f#\JJ	.	.	.
16E\LL	.	4cc#\	.
16e\	.	.	.
16E\	4ggn/	.	.
16e\JJ	.	.	.
16D\LL	.	4dd\	.
16d\	.	.	.
16D\	4ff#/	.	.
16d\JJ	.	.	.
16C#\LL	.	4a#\	.
16c#\	.	.	.
16C#\	8ee/	.	.
16c#\JJ	.	.	.
=15	=15	=15	=15
16BB\LL	8dd/	4b\	.
16B\	.	.	.
16BB\	4ddd/	.	.
16B\JJ	.	.	.
16AA\LL	.	4ff#\	.
16A\	.	.	.
16AA\	4cccn/	.	.
16A\JJ	.	.	.
16GG/LL	.	4gg\	.
16G/	.	.	.
16GG/	4bb/	.	.
16G/JJ	.	.	.
16FF#/LL	.	4dd\	.
16F#/	.	.	.
16FF#/	8aa#/	.	.
16F#/JJ	.	.	.
*	*v	*v	*
=16	=16	=16
4GG/ 4G/	16b\LL	.
.	16bb\	.
.	16b\	.
.	16bb\JJ	.
4r	16e\LL	.
.	16ee\	.
.	16e\	.
.	16ee\JJ	.
4AA/ 4A/	16g\LL	.
.	16gg\	.
.	16g\	.
.	16gg\JJ	.
4r	16c#/LL	.
.	16cc#/	.
.	16c#/	.
.	16cc#/JJ	.
=17	=17	=17
4D/	4d/ 4dd/	.
4DD/	4r	.
==:|!	==:|!	==:|!
*-	*-	*-
!!!SMS: Alte Mozart-Ausgabe, Band 20, Breitkopf &amp; H&auml;rtel 1877-1883.
!!!ONB: Stich und Druck von Breitkopf &amp; H&auml;rtel in Leipzig
!!!ONB: Ausgegeben 1878
!!!ENC: Craig Stuart Sapp
!!!END: 2009/09/22/
!!!title: @{OTL}, K 284 (205b), @{OMV}
!!!hum2abc: --no-tempo -s 0.65
